!!!OTL: Rock-A-Bye, Baby
!!!COM: unknown
!!!ODT: unknown
!!!YOR: The Folksong Fake Book
!!!YOY: 2000
!!!AST: Children's song
!!!YEC: Brian Luke, 2001
**kern	**harm
*k[f#]	*k[f#]
*M3/4	*M3/4
*G:	*G:
*>A	*>A
=1	=1
4B	I
4d	.
4b	.
=2	=2
2a	.
4g	.
=3	=3
4B	.
4d	.
4g	.
=4	=4
2.f#	V7
=5	=5
4c	.
4d	.
4cc	.
=6	=6
2b	.
4a	.
=7	=7
4a	I
4g	.
4e	io7
=8	=8
2.d	I;
*>A'	*>A'
=9	=9
4B	I
4d	.
4b	.
=10	=10
2a	.
4g	.
=11	=11
4B	.
4d	.
4g	.
=12	=12
2f#	V7
4e	.
=13	=13
4d	I
4g	.
4cc	IV
=14	=14
2b	I
4g	.
=15	=15
4a	V7/V
4e	.
4f#	V7
=16	=16
2.g	I;
*-	*-
